suite-common/icons/assets/icons/firmware.svg

<svg xmlns="http://www.w3.org/2000/svg" viewBox="0 0 16 16">
  <path fill-rule="evenodd" d="M8.037.799c-.433.067-.918.329-1.288.696a2.55 2.55 0 0 0-.741 1.574l-.015.177-1.11.014c-.937.012-1.132.022-1.256.06-.428.131-.79.557-.855 1.005-.013.093-.025.566-.025 1.051v.883l-.227.019c-.999.081-1.83.764-2.177 1.789-.058.172-.063.227-.06.693l.002.507.095.259c.244.668.674 1.161 1.262 1.45.257.126.649.238.932.267l.173.018v.829c0 .995.021 1.22.134 1.45.111.225.372.484.604.598l.179.088 4.575.01c2.987.006 4.675 0 4.863-.018.223-.021.324-.044.438-.1.207-.102.479-.379.601-.615l.099-.191v-3.185l-.085-.159a1 1 0 0 0-.192-.25c-.197-.169-.403-.182-.816-.05a1 1 0 0 1-.455.059 1.1 1.1 0 0 1-.355-.069c-.159-.071-.388-.303-.48-.487-.063-.126-.07-.172-.07-.424 0-.254.007-.298.072-.428.091-.185.275-.365.468-.459.131-.064.181-.073.398-.073.171 0 .307.017.435.054.262.076.561.076.717 0 .174-.084.301-.236.328-.392.012-.071.022-.831.022-1.689V4.2l-.1-.209a1.3 1.3 0 0 0-.593-.604c-.23-.11-.511-.132-1.657-.133l-.857-.001-.018-.163c-.05-.436-.244-.958-.478-1.286a3 3 0 0 0-.612-.601C9.704 1.061 9.253.859 9.08.83 8.857.793 8.201.773 8.037.799m.874 1.55c.247.125.435.329.518.561.068.191.053.498-.041.823-.099.341-.1.405-.013.581.076.152.191.255.404.363l.139.07h2.829v1.508l-.274.033c-.341.04-.62.125-.89.271-.57.306-.988.799-1.207 1.422l-.096.272.001.48c0 .387.01.511.049.64.318 1.046 1.114 1.733 2.157 1.86l.26.032v1.482h-8.48l-.001-.62c-.002-1.047-.042-2.051-.087-2.159-.082-.195-.31-.341-.567-.361-.123-.01-.233.004-.451.06-.491.125-.811.066-1.084-.201-.233-.228-.29-.37-.29-.722 0-.261.006-.294.08-.444a1.03 1.03 0 0 1 .45-.445c.118-.06.168-.068.406-.068.23 0 .31.012.528.082.195.063.283.079.374.067.225-.031.423-.194.558-.462.055-.108.057-.145.057-1.08 0-.532.008-1.12.018-1.307l.017-.34h2.873l.126-.065a.65.65 0 0 0 .337-.37c.056-.17.053-.332-.013-.605a2.2 2.2 0 0 1-.055-.49c0-.229.009-.281.07-.405.082-.168.3-.376.499-.478.133-.068.156-.071.413-.058.207.011.298.028.386.073"/>
</svg>

<svg xmlns="http://www.w3.org/2000/svg" viewBox="0 0 16 16"><path d="M8.037 0.799 C 7.604 0.866,7.119 1.128,6.749 1.495 C 6.327 1.912,6.056 2.487,6.008 3.069 L 5.993 3.246 4.883 3.260 C 3.946 3.272,3.751 3.282,3.627 3.320 C 3.199 3.451,2.837 3.877,2.772 4.325 C 2.759 4.418,2.747 4.891,2.747 5.376 L 2.747 6.259 2.520 6.278 C 1.521 6.359,0.690 7.042,0.343 8.067 C 0.285 8.239,0.280 8.294,0.283 8.760 L 0.285 9.267 0.380 9.526 C 0.624 10.194,1.054 10.687,1.642 10.976 C 1.899 11.102,2.291 11.214,2.574 11.243 L 2.747 11.261 2.747 12.090 C 2.747 13.085,2.768 13.310,2.881 13.540 C 2.992 13.765,3.253 14.024,3.485 14.138 L 3.664 14.226 8.239 14.236 C 11.226 14.242,12.914 14.236,13.102 14.218 C 13.325 14.197,13.426 14.174,13.540 14.118 C 13.747 14.016,14.019 13.739,14.141 13.503 L 14.240 13.312 14.240 11.720 L 14.240 10.127 14.155 9.968 C 14.109 9.881,14.022 9.768,13.963 9.718 C 13.766 9.549,13.560 9.536,13.147 9.668 C 12.951 9.730,12.889 9.738,12.692 9.727 C 12.542 9.718,12.421 9.695,12.337 9.658 C 12.178 9.587,11.949 9.355,11.857 9.171 C 11.794 9.045,11.787 8.999,11.787 8.747 C 11.787 8.493,11.794 8.449,11.859 8.319 C 11.950 8.134,12.134 7.954,12.327 7.860 C 12.458 7.796,12.508 7.787,12.725 7.787 C 12.896 7.787,13.032 7.804,13.160 7.841 C 13.422 7.917,13.721 7.917,13.877 7.841 C 14.051 7.757,14.178 7.605,14.205 7.449 C 14.217 7.378,14.227 6.618,14.227 5.760 L 14.227 4.200 14.127 3.991 C 14.001 3.727,13.784 3.506,13.534 3.387 C 13.304 3.277,13.023 3.255,11.877 3.254 L 11.020 3.253 11.002 3.090 C 10.952 2.654,10.758 2.132,10.524 1.804 C 10.388 1.615,10.098 1.329,9.912 1.203 C 9.704 1.061,9.253 0.859,9.080 0.830 C 8.857 0.793,8.201 0.773,8.037 0.799 M8.911 2.349 C 9.158 2.474,9.346 2.678,9.429 2.910 C 9.497 3.101,9.482 3.408,9.388 3.733 C 9.289 4.074,9.288 4.138,9.375 4.314 C 9.451 4.466,9.566 4.569,9.779 4.677 L 9.918 4.747 11.332 4.747 L 12.747 4.747 12.747 5.501 L 12.747 6.255 12.473 6.288 C 12.132 6.328,11.853 6.413,11.583 6.559 C 11.013 6.865,10.595 7.358,10.376 7.981 L 10.280 8.253 10.281 8.733 C 10.281 9.120,10.291 9.244,10.330 9.373 C 10.648 10.419,11.444 11.106,12.487 11.233 L 12.747 11.265 12.747 12.006 L 12.747 12.747 8.507 12.747 L 4.267 12.747 4.266 12.127 C 4.264 11.080,4.224 10.076,4.179 9.968 C 4.097 9.773,3.869 9.627,3.612 9.607 C 3.489 9.597,3.379 9.611,3.161 9.667 C 2.670 9.792,2.350 9.733,2.077 9.466 C 1.844 9.238,1.787 9.096,1.787 8.744 C 1.787 8.483,1.793 8.450,1.867 8.300 C 1.960 8.115,2.123 7.953,2.317 7.855 C 2.435 7.795,2.485 7.787,2.723 7.787 C 2.953 7.787,3.033 7.799,3.251 7.869 C 3.446 7.932,3.534 7.948,3.625 7.936 C 3.850 7.905,4.048 7.742,4.183 7.474 C 4.238 7.366,4.240 7.329,4.240 6.394 C 4.240 5.862,4.248 5.274,4.258 5.087 L 4.275 4.747 5.712 4.747 L 7.148 4.747 7.274 4.682 C 7.442 4.597,7.559 4.468,7.611 4.312 C 7.667 4.142,7.664 3.980,7.598 3.707 C 7.562 3.558,7.544 3.390,7.543 3.217 C 7.543 2.988,7.552 2.936,7.613 2.812 C 7.695 2.644,7.913 2.436,8.112 2.334 C 8.245 2.266,8.268 2.263,8.525 2.276 C 8.732 2.287,8.823 2.304,8.911 2.349 " stroke="none" fill-rule="evenodd" fill="black"></path></svg>
